X:1
T:Trop de regretz
T:Nicolle des Celliers de Hesdin
T:Source : Premier livre contenant 31 chansons eslevées---Paris---P.Attaignant---1535. Editor : André Vierendeels (01/01/18) Notes : Original clefs : C1, C3, C3, F3 Original note values have been halved Editorial accidentals above the staff Dotted bracket indicates black notes m 25 in T 1 : "E" notated as "D" in original print
T:Trop de regretz
T:©
T:©
T:©
C:Nicolle des Celliers de Hesdin
Z:©
%%score [ 1 [ 2 3 ] 4 ]
L:1/8
Q:1/4=120
M:2/2
K:C
V:1 treble nm="Soprano" snm="S"
V:2 treble-8 nm="Tenor 1" snm="T 1"
V:3 treble-8 nm="Tenor 2" snm="T 2"
V:4 bass nm="Bass" snm="B"
V:1
 z8 | G4 E2 C2 | G3 A BABc | d2 c4 B2 | c2 G2 A2 c2 | B2 A2 G2 A2- | AG G4 F2 | G8- | G8 | %9
w: |Trop de re-|gretz _ _ _ _ _|_ _ _|* pour vous seul-|le ie- * *|* * por- *|te,|_|
 z2 G2 G4 | z2 G2 G2 G2 | GFGA GFED | C2 D2 E2 F2 | G4 z2 A2 | F2 ED E4- | E4 G4 | A2 B2 c4 | %17
w: mon cueur|ne peult les|faitz _ _ _ _ _ _ _|_ plus sup- por-|ter, plus|sup- porr- * ter,|_ dont|me con- vient,|
 z2 G2 A2 B2 | c6 G2 | A2 B2 c2 A2 | B8 | z4 G4 | E2 C2 G3 A | BABc d2 c2- | c2 B2 c2 G2 | %25
w: dont me con-|vient de|vous me de- por-|ter,|ou|que da- mours _|_ _ _ _ _ _|* * * vous|
 A2 c2 B2 A2 | G2 A3 G G2- | G2 F2 G4- | G4 z4 | G4 E2 C2 | G3 A BABc | d2 c4 B2 | c2 G2 A2 c2 | %33
w: m'ou- vri- ez la|por- * * *|* * te,|_|ou que da-|mours _ _ _ _ _|_ _ _|* vous m'ou- vri-|
 B2 A2 G2 A2- |"^#" AG G4 F2 | G8 |] %36
w: ez la por- *||te.|
V:2
 d4 B2 G2 | G4 g4 | e2 c2 d4- | d2 ef g2 z d | e2 g2 f2 e2 | d3 c B2 A2 | z2 c2 d2 f2 | %7
w: Trop de re-|gretz, trop|de re- gretz|_ _ _ _ pour|vous seul- le ie|por- * * te,|pour vous seul-|
 e2 d2 c2 d2- | dc c4 B2 | c2 G2 cBcd | e2 c4 B2 | c4 z2 cd | ef g4 c2 | d2 e3 d c2- | c2 B2 c4- | %15
w: le ie por- *||te, mon cueur _ _ _|_ _ ne|peult les _|_ _ faitz plus|sup- por- * *|* * ter,|
 c8 | z4 z2 c2 | e4 d4 | c4 g4 | c2 g2 g2 f2 | g4 z2 d2 | B2 G2 G4 | g4 e2 c2 | d6 ef | %24
w: _|dont|me con-|vient de|vous me de- por-|ter, ou|que da- mours,|ou que da-|mours, _ _|
 g2 z d e2 g2 | f2 e2 d3 c | B2 A2 c4 | d4 z4 | d4 B2 G2 | G4 g4 | e2 c2 d4- | d2 ef g2 z d | %32
w: _ vous m'ou- vri-|ez la por- *||te,|ou que da-|mours, vous|m'ou- vri- ez,|_ _ _ _ vous|
 e2 g2 f2 e2 | d3 c B2 A2 | c4 d4 | d8 |] %36
w: m'ou- vri- ez la|por- * * *||te.|
V:3
 z4 d4 | B2 G2 c3 d | edef gd g2 | fedc d4 | c4 z2 c2 | d2 f2 e2 d2 | cBAG A4 | G4 z2 G2 | c4 d4 | %9
w: Trop|de re- gretz _|_ _ _ _ _ _ _||* pour|vous seul- le ie|por- * * * *|te, mon|cueur ne|
 e4 z2 G2 | c4 d4 | edef edcB | A2 G2 z2 c2- | cA B2 c2 A2- | A2 GF A2 G2 | z2 c2 e4 | d4 c3 B | %17
w: peult, mon|cueur ne|peult _ _ _ _ _ _ _|_ _ les|_ faitz plus sup- por-|* * * * ter,|dont me|con- vient, _|
 AG c4 B2 | e4 z2 e2 | f2 e2 c2 c2 | d4 z4 | d4 B2 G2 | c3 d edef | gd g2 fedc | d4 c4 | %25
w: _ _ _ _|* de|vous me de- por-|ter,|ou que da-|mours, _ _ _ _ _|_ _ _ _ _ _ _||
 z2 c2 d2 f2 | e2 d2 cBAG | A4 G4 | z4 d4 | B2 G2 c3 d | edef gd g2 | fedc d4 | c4 z2 c2 | %33
w: vous m'ou- vri-|ez la por- * * *|* te,|ou|que da- mours vous|m'ou- * * * vri- * ez|la _ _ _ por-|te, vous|
 d2 f2 e2 d2 | cBAG A4 | G8 |] %36
w: m'ou- vri- ez la|por- * * * *|te.|
V:4
 z4 z2 G,2- | G,2 E,2 C,2 C2- | C2 B,A, G,F,G,A, | B,2 C2 G,4 | C,4 z2 C,2 | G,2 F,2 G,2 D,2 | %6
w: Trop|_ de re- gretz|_ _ _ _ _ _ _||* pour|vous seul- le ie|
 E,4 D,4 | z2 G,2 C2 B,2 | C2 C,2 G,4 | C,4 z2 C,2 | C,4 G,4 | C,4 C4- | C2 B,2 A,2 A,2 | %13
w: por- te,|pour vous seul-|le ie por-|te, mon|cueur ne|peult les|_ faitz plus sup-|
 G,F,E,D, E,2 F,2 | D,4 C,4- | C,4 z2 C,2 | F,2 G,2 A,G,A,B, | C2 C,2 F,2 G,2 | A,G,A,B, C2 C,2 | %19
w: |por- ter,|_ dont|me con- vient, _ _ _|_ dont me con-|vient _ _ _ _ de|
 F,2 G,2 A,2 A,2 | G,8 | z2 G,4 E,2 | C,2 C4 B,A, | G,F,G,A, B,2 C2 | G,4 C,4 | z2 C,2 G,2 F,2 | %26
w: vous me de- por-|ter,|ou que|da- mours, _ _|_ _ _ _ _ _||vous m'ou- vri-|
 G,2 D,2 E,4 | D,4 G,4- | G,4 z2 G,2- | G,2 E,2 C,2 C2- | C2 B,A, G,F, G,A, | B,2 C2 G,4 | %32
w: ez la por-|* te,|_ ou|_ que da- mours|_ vous _ m'ou- * vri- *|ez la por-|
 C,4 z2 C,2 | G,2 F,2 G,2 D,2 | E,4 D,4 | G,8 |] %36
w: te, vous|m'ou- vri- ez la|por- *|te.|

